dist/img/svg/lin.svg

<svg width="66" height="80" viewBox="0 0 66 80"  xmlns="http://www.w3.org/2000/svg">
<path d="M34.6767 0C34.16 0 33.6267 0.0266667 33.08 0.07C18.99 1.18 22.7267 16.0933 22.5134 21.0633C22.2567 24.7067 21.5134 27.5767 19.01 31.1333C16.06 34.6367 11.92 40.3 9.95671 46.2033C9.03004 48.9767 8.59004 51.8167 9.00004 54.5C8.87004 54.6133 8.74671 54.7267 8.63004 54.95C7.76337 55.8433 7.13337 56.9533 6.42337 57.7467C5.76004 58.41 4.80671 58.6367 3.76671 59.08C2.72337 59.5333 1.57337 59.9767 0.886707 61.35C0.586707 61.9767 0.433374 62.66 0.446707 63.3533C0.446707 64.0167 0.536708 64.69 0.630041 65.14C0.823374 66.47 1.01671 67.57 0.760041 68.3733C-0.0666257 70.64 -0.169959 72.1933 0.410041 73.3233C0.990041 74.4367 2.19337 74.8867 3.54004 75.3267C6.24337 75.9933 9.90671 75.7767 12.79 77.3233C15.8767 78.88 19.01 79.56 21.51 78.89C23.2634 78.5067 24.7434 77.3467 25.5367 75.74C27.4934 75.73 29.6367 74.8433 33.07 74.6267C35.4 74.4333 38.3167 75.5167 41.6634 75.29C41.7467 75.74 41.8734 75.9533 42.0434 76.4033L42.0534 76.4133C43.3567 79.0067 45.7634 80.1867 48.3334 79.9833C50.9034 79.7833 53.64 78.1967 55.8567 75.63C57.96 73.08 61.4667 72.0167 63.7834 70.62C64.9434 69.9567 65.8801 69.0567 65.9467 67.7767C66.0234 66.4433 65.2834 65.07 63.5667 63.1867V62.8633L63.5567 62.8533C62.99 62.1867 62.7234 61.07 62.43 59.7667C62.1467 58.43 61.8234 57.1467 60.79 56.28H60.78C60.5834 56.1 60.37 56.0567 60.1534 55.83C59.9667 55.7033 59.75 55.6233 59.52 55.6167C60.9567 51.3567 60.4 47.1167 58.9434 43.3033C57.1667 38.6033 54.06 34.51 51.6934 31.6933C49.04 28.3433 46.44 25.17 46.49 20.4633C46.58 13.29 47.28 0.02 34.6767 0V0ZM36.44 11.35H36.4834C37.1934 11.35 37.8034 11.5567 38.43 12.01C39.0667 12.46 39.53 13.1167 39.8934 13.7867C40.2434 14.65 40.42 15.3167 40.4467 16.2C40.4467 16.1333 40.4667 16.0667 40.4667 16.0033V16.35C40.46 16.3267 40.4534 16.3 40.4534 16.28L40.44 16.2C40.4334 17.01 40.2634 17.81 39.94 18.5533C39.7834 18.97 39.5434 19.3533 39.23 19.67C39.1334 19.6167 39.04 19.57 38.9367 19.53C38.5867 19.38 38.2734 19.3167 37.9867 19.0867C37.75 18.9933 37.5034 18.9167 37.2567 18.8667C37.42 18.67 37.74 18.4233 37.8634 18.2067C38.04 17.78 38.1367 17.3267 38.1567 16.8667V16.8033C38.1634 16.3533 38.0967 15.9 37.9534 15.47C37.8034 15.02 37.6167 14.8 37.3434 14.3567C37.0634 14.1367 36.7867 13.9167 36.4534 13.9167H36.4C36.09 13.9167 35.8134 14.0167 35.5267 14.3567C35.21 14.67 34.9734 15.0467 34.8434 15.47C34.6667 15.8933 34.5634 16.35 34.5434 16.8033V16.8667C34.55 17.1633 34.57 17.4633 34.61 17.7567C33.9667 17.5333 33.15 17.3067 32.5867 17.0833C32.5534 16.8667 32.5334 16.6433 32.5267 16.42V16.3533C32.5 15.4733 32.67 14.6 33.0267 13.79C33.3 13.06 33.8 12.4367 34.46 12.0133C35.03 11.5833 35.7234 11.35 36.44 11.35ZM26.5667 11.5467H26.6867C27.16 11.5467 27.5867 11.7067 28.0167 11.9967C28.5034 12.4267 28.8967 12.9567 29.1634 13.5467C29.4634 14.21 29.6334 14.8833 29.6734 15.77V15.7833C29.6967 16.23 29.6934 16.4533 29.6667 16.67V16.9367C29.5667 16.96 29.48 16.9967 29.39 17.0167C28.8834 17.2 28.4767 17.4667 28.08 17.6833C28.12 17.3867 28.1234 17.0867 28.09 16.7933V16.7433C28.05 16.3 27.96 16.08 27.8167 15.6333C27.7134 15.2933 27.5234 14.99 27.2634 14.7433C27.1 14.5933 26.88 14.5167 26.6534 14.53H26.5834C26.3467 14.55 26.15 14.6667 25.9634 14.97C25.75 15.2267 25.6134 15.54 25.5634 15.87C25.4734 16.23 25.4467 16.6 25.4867 16.9733V17.02C25.5267 17.47 25.61 17.69 25.7567 18.1333C25.9067 18.58 26.08 18.8 26.3067 19.0267C26.3434 19.0567 26.3767 19.0867 26.42 19.1067C26.1867 19.2967 26.03 19.34 25.8334 19.56C25.71 19.6533 25.5667 19.76 25.3967 19.7867C25.05 19.37 24.7434 18.92 24.48 18.4467C24.16 17.7467 23.9934 16.9867 23.9634 16.2233C23.9067 15.47 24 14.7167 24.23 13.9967C24.4134 13.34 24.7367 12.7333 25.1734 12.2133C25.6 11.77 26.04 11.5467 26.5667 11.5467ZM31.1367 17.2333C32.24 17.2333 33.5767 17.45 35.1867 18.5633C36.1634 19.23 36.93 19.46 38.6967 20.1233H38.7067C39.5567 20.5767 40.0567 21.01 40.3 21.4533V21.0167C40.5434 21.5067 40.56 22.0767 40.3534 22.5833C39.9434 23.62 38.6334 24.73 36.8067 25.3933V25.4C35.9134 25.85 35.1367 26.51 34.2234 26.95C33.3034 27.4 32.2634 27.9233 30.85 27.84C30.3434 27.8667 29.8334 27.79 29.3567 27.6167C28.99 27.4167 28.63 27.1967 28.2834 26.9567C27.6334 26.5067 27.0734 25.85 26.2434 25.4067V25.39H26.2267C24.8934 24.57 24.1734 23.6833 23.94 23.02C23.71 22.1267 23.9234 21.4567 24.5834 21.02C25.33 20.57 25.85 20.1167 26.1934 19.9C26.54 19.6533 26.67 19.56 26.78 19.4633H26.7867V19.4533C27.35 18.78 28.24 17.89 29.5834 17.45C30.0467 17.33 30.5634 17.2333 31.1367 17.2333ZM40.4667 24.3767C41.6634 29.1 44.4567 35.96 46.2534 39.2867C47.2067 41.0667 49.1034 44.8167 49.9267 49.3667C50.4467 49.35 51.0234 49.4267 51.6367 49.58C53.79 44.01 49.8167 38.0233 48.0067 36.36C47.27 35.69 47.2334 35.2433 47.5967 35.2433C49.56 37.0233 52.1467 40.4833 53.0834 44.4333C53.5134 46.2167 53.6134 48.1133 53.1534 50C53.3767 50.0933 53.6034 50.2033 53.8367 50.2233C57.2767 52.0033 58.5467 53.35 57.9367 55.3467V55.2033C57.7334 55.1933 57.5367 55.2033 57.3334 55.2033H57.2834C57.7867 53.6467 56.6767 52.4533 53.7334 51.1233C50.6834 49.79 48.2467 50.0033 47.83 52.6733C47.8067 52.8167 47.79 52.8933 47.7734 53.1233C47.5467 53.2 47.31 53.3 47.0767 53.3367C45.6434 54.23 44.87 55.5667 44.4334 57.2933C44 59.07 43.8667 61.1467 43.75 63.5233V63.5333C43.68 64.6467 43.18 66.3267 42.6867 68.0367C37.6867 71.61 30.7534 73.1633 24.8567 69.15C24.4867 68.5067 24.0367 67.9033 23.5167 67.3733C23.27 66.9567 22.9567 66.5833 22.6 66.26C23.2067 66.26 23.7267 66.1633 24.15 66.0367C24.6334 65.8133 25.0067 65.41 25.1967 64.9233C25.5567 64.0333 25.1967 62.6 24.0467 61.0467C22.8967 59.49 20.9434 57.73 18.0867 55.9767C15.9867 54.6467 14.8 53.0767 14.2534 51.3233C13.7034 49.5433 13.7767 47.7067 14.2034 45.84C15.02 42.2733 17.1134 38.8067 18.45 36.63C18.8067 36.4133 18.5734 37.08 17.09 39.8767C15.77 42.38 13.2867 48.2 16.6834 52.7233C16.81 49.4267 17.5434 46.1733 18.84 43.1367C20.72 38.8767 24.65 31.4567 24.96 25.5767C25.12 25.6967 25.6834 26.0267 25.9234 26.25C26.65 26.6933 27.19 27.36 27.89 27.8C28.5934 28.47 29.48 28.9167 30.81 28.9167C30.94 28.9267 31.06 28.9367 31.18 28.9367C32.55 28.9367 33.61 28.49 34.5 28.0433C35.4667 27.5967 36.2367 26.93 36.9667 26.71H36.9834C38.54 26.26 39.77 25.37 40.4667 24.3767ZM47.7534 54.2367C47.8767 56.24 48.8967 58.3867 50.6934 58.8267C52.6534 59.2733 55.4734 57.7167 56.6634 56.2767L57.3667 56.2467C58.4167 56.22 59.29 56.28 60.19 57.1367L60.2 57.1467C60.8934 57.81 61.2167 58.9167 61.5034 60.0667C61.7867 61.4033 62.0167 62.6667 62.8667 63.62C64.4867 65.3767 65.0167 66.64 64.9867 67.42L64.9967 67.4V67.46L64.9867 67.42C64.9367 68.2933 64.37 68.74 63.3267 69.4033C61.2267 70.74 57.5067 71.7767 55.1367 74.6367C53.0767 77.0933 50.5667 78.4333 48.35 78.6067C46.1367 78.7833 44.2267 77.94 43.1034 75.6133L43.0867 75.6033C42.3867 74.2667 42.6867 72.1867 43.2734 69.97C43.86 67.7433 44.7 65.4867 44.8167 63.6433C44.94 61.2633 45.07 59.1933 45.4667 57.5967C45.8667 56.0467 46.4934 54.94 47.6034 54.3167L47.7534 54.2433V54.2367ZM11.7034 54.4H11.7367C11.9134 54.4 12.0867 54.4167 12.26 54.4467C13.5134 54.63 14.6134 55.5567 15.67 56.9533L18.7034 62.5L18.7134 62.51C19.5234 64.2867 21.2267 66.0567 22.6767 67.97C24.1234 69.9633 25.2434 71.74 25.1067 73.2033V73.2233C24.9167 75.7033 23.51 77.05 21.3567 77.5367C19.2067 77.9867 16.29 77.5433 13.3734 75.99C10.1467 74.2033 6.31337 74.4267 3.85004 73.9833C2.62004 73.7633 1.81337 73.3133 1.44004 72.6467C1.07004 71.9833 1.06337 70.6433 1.85004 68.5467V68.5367L1.85671 68.5267C2.24671 67.4133 1.95671 66.0167 1.76671 64.7967C1.58337 63.46 1.49004 62.4333 1.91004 61.6633C2.44337 60.55 3.23004 60.3333 4.20671 59.8867C5.19004 59.4367 6.34337 59.2133 7.26004 58.3233H7.26671V58.3133C8.12004 57.42 8.75004 56.31 9.49337 55.52C10.1267 54.85 10.76 54.4 11.7034 54.4ZM35.5667 24.1533C34.1167 24.8233 32.4167 25.9367 30.6067 25.9367C28.8 25.9367 27.3734 25.0467 26.3434 24.3833C25.8267 23.9367 25.41 23.49 25.0967 23.2667C24.55 22.82 24.6167 22.1533 24.85 22.1533C25.2134 22.2067 25.28 22.6033 25.5134 22.8233C25.8334 23.0433 26.23 23.4867 26.7167 23.9333C27.6867 24.6 28.9834 25.49 30.6034 25.49C32.22 25.49 34.1134 24.6 35.2634 23.9367C35.9134 23.4867 36.7467 22.8233 37.4234 22.38C37.9434 21.9233 37.92 21.4867 38.3534 21.4867C38.7834 21.54 38.4667 21.9333 37.8634 22.5967C37.26 23.0467 36.3267 23.7133 35.5634 24.1567V24.1533H35.5667ZM31.96 18.8733V18.8C31.94 18.7367 32.0034 18.66 32.0567 18.6333C32.3034 18.49 32.6567 18.5433 32.9234 18.6467C33.1334 18.6467 33.4567 18.87 33.4234 19.0967C33.4034 19.26 33.14 19.3167 32.9734 19.3167C32.79 19.3167 32.6667 19.1733 32.5034 19.09C32.33 19.03 32.0167 19.0633 31.96 18.8733ZM30.1234 18.8733C30.0567 19.0667 29.7467 19.0367 29.57 19.0933C29.4134 19.1767 29.2834 19.32 29.1067 19.32C28.9367 19.32 28.67 19.2567 28.65 19.0933C28.62 18.8733 28.9434 18.65 29.15 18.65C29.42 18.5467 29.7634 18.4933 30.0134 18.6333C30.0767 18.6633 30.1334 18.7333 30.1134 18.8V18.87H30.1234V18.8733Z" 
/>
</svg>

<svg width="66" height="80" viewBox="0 0 66 80" xmlns="http://www.w3.org/2000/svg"><path d="M34.677 0c-.517 0-1.05.027-1.597.07-14.09 1.11-10.353 16.023-10.567 20.993-.256 3.644-1 6.514-3.503 10.07-2.95 3.504-7.09 9.167-9.053 15.07C9.03 48.977 8.59 51.817 9 54.5c-.13.113-.253.227-.37.45-.867.893-1.497 2.003-2.207 2.797-.663.663-1.616.89-2.656 1.333-1.044.453-2.194.897-2.88 2.27a4.43 4.43 0 00-.44 2.003c0 .664.09 1.337.183 1.787.193 1.33.387 2.43.13 3.233-.827 2.267-.93 3.82-.35 4.95.58 1.114 1.783 1.564 3.13 2.004 2.703.666 6.367.45 9.25 1.996 3.087 1.557 6.22 2.237 8.72 1.567a5.894 5.894 0 004.027-3.15c1.956-.01 4.1-.897 7.533-1.113 2.33-.194 5.247.89 8.593.663.084.45.21.663.38 1.113l.01.01c1.304 2.594 3.71 3.774 6.28 3.57 2.57-.2 5.307-1.786 7.524-4.353 2.103-2.55 5.61-3.613 7.926-5.01 1.16-.663 2.097-1.563 2.164-2.843.076-1.334-.664-2.707-2.38-4.59v-.324l-.01-.01c-.567-.666-.834-1.783-1.127-3.086-.283-1.337-.607-2.62-1.64-3.487h-.01c-.197-.18-.41-.223-.627-.45a1.19 1.19 0 00-.633-.213c1.437-4.26.88-8.5-.577-12.314-1.776-4.7-4.883-8.793-7.25-11.61-2.653-3.35-5.253-6.523-5.203-11.23C46.58 13.29 47.28.02 34.677 0zm1.763 11.35h.043c.71 0 1.32.207 1.947.66.637.45 1.1 1.107 1.463 1.777.35.863.527 1.53.554 2.413 0-.067.02-.133.02-.197v.347a.284.284 0 01-.014-.07l-.013-.08a6.02 6.02 0 01-.5 2.353c-.157.417-.397.8-.71 1.117-.097-.053-.19-.1-.293-.14-.35-.15-.664-.213-.95-.443a4.369 4.369 0 00-.73-.22c.163-.197.483-.444.606-.66a3.94 3.94 0 00.294-1.34v-.064c.006-.45-.06-.903-.204-1.333-.15-.45-.336-.67-.61-1.113-.28-.22-.556-.44-.89-.44H36.4c-.31 0-.587.1-.873.44-.317.313-.554.69-.684 1.113-.176.423-.28.88-.3 1.333v.064c.007.296.027.596.067.89-.643-.224-1.46-.45-2.023-.674a5.462 5.462 0 01-.06-.663v-.067a5.907 5.907 0 01.5-2.563 3.612 3.612 0 011.433-1.777 3.285 3.285 0 011.98-.663zm-9.873.197h.12c.473 0 .9.16 1.33.45.486.43.88.96 1.146 1.55.3.663.47 1.336.51 2.223v.013c.024.447.02.67-.006.887v.267c-.1.023-.187.06-.277.08-.507.183-.913.45-1.31.666.04-.296.043-.596.01-.89v-.05c-.04-.443-.13-.663-.273-1.11a2.042 2.042 0 00-.554-.89.828.828 0 00-.61-.213h-.07c-.236.02-.433.137-.62.44-.213.257-.35.57-.4.9-.09.36-.116.73-.076 1.103v.047c.04.45.123.67.27 1.113.15.447.323.667.55.894.036.03.07.06.113.08-.233.19-.39.233-.587.453-.123.093-.266.2-.436.227a8.743 8.743 0 01-.917-1.34c-.32-.7-.487-1.46-.517-2.224a5.862 5.862 0 01.267-2.226 4.768 4.768 0 01.943-1.784c.427-.443.867-.666 1.394-.666zm4.57 5.686c1.103 0 2.44.217 4.05 1.33.976.667 1.743.897 3.51 1.56h.01c.85.454 1.35.887 1.593 1.33v-.436c.243.49.26 1.06.053 1.566-.41 1.037-1.72 2.147-3.546 2.81v.007c-.894.45-1.67 1.11-2.584 1.55-.92.45-1.96.973-3.373.89a3.796 3.796 0 01-1.493-.223c-.367-.2-.727-.42-1.074-.66-.65-.45-1.21-1.107-2.04-1.55v-.017h-.016c-1.334-.82-2.054-1.707-2.287-2.37-.23-.893-.017-1.563.643-2 .747-.45 1.267-.903 1.61-1.12.347-.247.477-.34.587-.437h.007v-.01c.563-.673 1.453-1.563 2.796-2.003a6.13 6.13 0 011.554-.217zm9.33 7.144c1.196 4.723 3.99 11.583 5.786 14.91.954 1.78 2.85 5.53 3.674 10.08.52-.017 1.096.06 1.71.213 2.153-5.57-1.82-11.557-3.63-13.22-.737-.67-.774-1.117-.41-1.117 1.963 1.78 4.55 5.24 5.486 9.19.43 1.784.53 3.68.07 5.567.224.093.45.203.684.223 3.44 1.78 4.71 3.127 4.1 5.124v-.144c-.204-.01-.4 0-.604 0h-.05c.504-1.556-.606-2.75-3.55-4.08-3.05-1.333-5.486-1.12-5.903 1.55-.023.144-.04.22-.057.45-.226.077-.463.177-.696.214-1.434.893-2.207 2.23-2.644 3.956-.433 1.777-.566 3.854-.683 6.23v.01c-.07 1.114-.57 2.794-1.063 4.504-5 3.573-11.934 5.126-17.83 1.113a8.817 8.817 0 00-1.34-1.777 4.834 4.834 0 00-.917-1.113c.607 0 1.127-.097 1.55-.223a2.049 2.049 0 001.047-1.114c.36-.89 0-2.323-1.15-3.876-1.15-1.557-3.104-3.317-5.96-5.07-2.1-1.33-3.287-2.9-3.834-4.654-.55-1.78-.476-3.616-.05-5.483.817-3.567 2.91-7.033 4.247-9.21.357-.217.123.45-1.36 3.247-1.32 2.503-3.803 8.323-.407 12.846.127-3.296.86-6.55 2.157-9.586 1.88-4.26 5.81-11.68 6.12-17.56.16.12.723.45.963.673.727.443 1.267 1.11 1.967 1.55.703.67 1.59 1.117 2.92 1.117.13.01.25.02.37.02 1.37 0 2.43-.447 3.32-.894.967-.446 1.737-1.113 2.467-1.333h.016c1.557-.45 2.787-1.34 3.484-2.333zm7.286 29.86c.124 2.003 1.144 4.15 2.94 4.59 1.96.446 4.78-1.11 5.97-2.55l.704-.03c1.05-.027 1.923.033 2.823.89l.01.01c.693.663 1.017 1.77 1.303 2.92.284 1.336.514 2.6 1.364 3.553 1.62 1.757 2.15 3.02 2.12 3.8l.01-.02v.06l-.01-.04c-.05.873-.617 1.32-1.66 1.983-2.1 1.337-5.82 2.374-8.19 5.234-2.06 2.456-4.57 3.796-6.787 3.97-2.213.176-4.123-.667-5.247-2.994l-.016-.01c-.7-1.336-.4-3.416.186-5.633.587-2.227 1.427-4.483 1.544-6.327.123-2.38.253-4.45.65-6.046.4-1.55 1.026-2.657 2.136-3.28l.15-.074v-.006zm-36.05.163h.034c.176 0 .35.017.523.047 1.253.183 2.353 1.11 3.41 2.506l3.033 5.547.01.01c.81 1.777 2.514 3.547 3.964 5.46 1.446 1.993 2.566 3.77 2.43 5.233v.02c-.19 2.48-1.597 3.827-3.75 4.314-2.15.45-5.067.006-7.984-1.547-3.226-1.787-7.06-1.563-9.523-2.007-1.23-.22-2.037-.67-2.41-1.336-.37-.664-.377-2.004.41-4.1v-.01l.007-.01c.39-1.114.1-2.51-.09-3.73-.184-1.337-.277-2.364.143-3.134.533-1.113 1.32-1.33 2.297-1.776.983-.45 2.136-.674 3.053-1.564h.007v-.01c.853-.893 1.483-2.003 2.226-2.793.634-.67 1.267-1.12 2.21-1.12zm23.864-30.247c-1.45.67-3.15 1.784-4.96 1.784-1.807 0-3.234-.89-4.264-1.554-.516-.446-.933-.893-1.246-1.116-.547-.447-.48-1.114-.247-1.114.363.054.43.45.663.67.32.22.717.664 1.204 1.11.97.667 2.266 1.557 3.886 1.557 1.617 0 3.51-.89 4.66-1.553.65-.45 1.484-1.114 2.16-1.557.52-.457.497-.893.93-.893.43.053.114.446-.49 1.11-.603.45-1.536 1.116-2.3 1.56v-.004h.004zm-3.607-5.28V18.8c-.02-.063.043-.14.097-.167.246-.143.6-.09.866.014.21 0 .534.223.5.45-.02.163-.283.22-.45.22-.183 0-.306-.144-.47-.227-.173-.06-.486-.027-.543-.217zm-1.837 0c-.066.194-.376.164-.553.22-.157.084-.287.227-.463.227-.17 0-.437-.063-.457-.227-.03-.22.293-.443.5-.443.27-.103.613-.157.863-.017.064.03.12.1.1.167v.07h.01v.003z"/></svg>
